X: 5737
T: Cahan O'Hara
R: waltz
M: 3/4
K: Gmajor
GE|D3E G/2A/2B|AGE2GE|D3E G/2A/2B|A4 B/2A/2G|
GAB2d2|e/2f/2g ed cB|AGG2B2|dee4|dcB2d2|
e/2f/2g ed cB|AGG2B2|d/2e/2g a2(g2|g4)f2|
edB2AG|AGE2GE|DE G/2A/2B AG|G4||

